images/editable/428.svg

<svg width="838" height="600" xmlns="http://www.w3.org/2000/svg">
 <!-- Created with Method Draw - http://github.com/duopixel/Method-Draw/ -->

 <g>
  <title>background</title>
  <rect fill="#FFFFFF" opacity="0" id="canvas_background" height="602" width="840" y="-1" x="-1"/>
  <g display="none" overflow="visible" y="0" x="0" height="100%" width="100%" id="canvasGrid">
   <rect fill="url(#gridpattern)" stroke-width="0" y="0" x="0" height="100%" width="100%"/>
  </g>
 </g>
 <g>
  <title>Layer 1</title>
  <metadata transform="matrix(4.404384770853142,0,0,4.404384770853142,0,0) " id="svg_13">image/svg+xml</metadata>

  <g id="svg_15">
   <path fill="#ffffff" fill-rule="nonzero" id="svg_12" d="m244.20956,424.84537l349.58086,0l0,-249.69074l-349.58086,0l0,249.69074zm0,0"/>
   <path fill="none" stroke="#211e1e" stroke-width="0.2835" stroke-miterlimit="4" id="svg_11" d="m244.20956,424.84537l349.58086,0l0,-249.69074l-349.58086,0l0,249.69074"/>
   <path fill="#1966ba" fill-rule="nonzero" id="svg_10" d="m249.21612,237.573l339.58494,0l0,-57.42904l-339.58494,0l0,57.42904zm0,0"/>
   <path fill="#1966ba" fill-rule="nonzero" id="svg_9" d="m249.21612,419.85604l339.58494,0l0,-152.32979l-339.58494,0l0,152.32979zm0,0"/>
  </g>
  <text xml:space="default" dominant-baseline="middle" text-anchor="middle" font-family="sans-serif" font-size="35" id="svg_16" y="221.17261" x="419" stroke-width="0" stroke="#000" fill="#ffffff">param(text1)</text>
  <text xml:space="default" dominant-baseline="middle" text-anchor="middle" font-family="sans-serif" font-size="50" id="svg_17" y="330" x="419" stroke-width="0" stroke="#000" fill="#ffffff">param(text2)</text>
  <text xml:space="default" dominant-baseline="middle" text-anchor="middle" font-family="sans-serif" font-size="35" id="svg_18" y="400.00488" x="419" stroke-width="0" stroke="#000" fill="#ffffff">param(text3)</text>
 </g>
</svg>

<?xml version="1.0" encoding="UTF-8" standalone="no"?>
<svg
   xmlns:dc="http://purl.org/dc/elements/1.1/"
   xmlns:cc="http://creativecommons.org/ns#"
   xmlns:rdf="http://www.w3.org/1999/02/22-rdf-syntax-ns#"
   xmlns:svg="http://www.w3.org/2000/svg"
   xmlns="http://www.w3.org/2000/svg"
   xmlns:sodipodi="http://sodipodi.sourceforge.net/DTD/sodipodi-0.dtd"
   xmlns:inkscape="http://www.inkscape.org/namespaces/inkscape"
   width="81"
   height="58"
   version="1.1"
   id="svg135"
   sodipodi:docname="428.svg"
   inkscape:version="1.0.2 (e86c870879, 2021-01-15, custom)">
  <metadata
     id="metadata141">
    <rdf:RDF>
      <cc:Work
         rdf:about="">
        <dc:format>image/svg+xml</dc:format>
        <dc:type
           rdf:resource="http://purl.org/dc/dcmitype/StillImage" />
        <dc:title></dc:title>
      </cc:Work>
    </rdf:RDF>
  </metadata>
  <defs
     id="defs139" />
  <sodipodi:namedview
     pagecolor="#ffffff"
     bordercolor="#666666"
     borderopacity="1"
     objecttolerance="10"
     gridtolerance="10"
     guidetolerance="10"
     inkscape:pageopacity="0"
     inkscape:pageshadow="2"
     inkscape:window-width="1920"
     inkscape:window-height="1017"
     id="namedview137"
     showgrid="false"
     inkscape:zoom="3.8747426"
     inkscape:cx="95.770323"
     inkscape:cy="11.234748"
     inkscape:window-x="3832"
     inkscape:window-y="-8"
     inkscape:window-maximized="1"
     inkscape:current-layer="svg135" />
  <!-- Created with Method Draw - http://github.com/duopixel/Method-Draw/ -->
  <g
     id="g120">
    <title
       id="title114">background</title>
    <rect
       fill="#ffffff"
       opacity="0"
       id="canvas_background"
       height="602"
       width="840"
       y="-1"
       x="-1" />
    <g
       display="none"
       overflow="visible"
       y="0"
       x="0"
       height="100%"
       width="100%"
       id="canvasGrid">
      <rect
         fill="url(#gridpattern)"
         stroke-width="0"
         y="0"
         x="0"
         height="100%"
         width="100%"
         id="rect117" />
    </g>
  </g>
  <g
     id="g133"
     transform="matrix(0.22134088,0,0,0.22134088,-52.333198,-37.914325)">
    <title
       id="title122">Layer 1</title>
    <metadata
       transform="matrix(4.404384770853142,0,0,4.404384770853142,0,0) "
       id="svg_13">image/svg+xml</metadata>
    <g
       id="svg_15">
      <path
         fill="#ffffff"
         fill-rule="nonzero"
         id="svg_12"
         d="M 244.20956,424.84537 H 593.79042 V 175.15463 H 244.20956 Z m 0,0" />
      <path
         fill="none"
         stroke="#211e1e"
         stroke-width="0.2835"
         stroke-miterlimit="4"
         id="svg_11"
         d="M 244.20956,424.84537 H 593.79042 V 175.15463 H 244.20956 v 249.69074" />
      <path
         fill="#1966ba"
         fill-rule="nonzero"
         id="svg_10"
         d="M 249.21612,237.573 H 588.80106 V 180.14396 H 249.21612 Z m 0,0" />
      <path
         fill="#1966ba"
         fill-rule="nonzero"
         id="svg_9"
         d="M 249.21612,419.85604 H 588.80106 V 267.52625 H 249.21612 Z m 0,0" />
    </g>
    <text
       xml:space="default"
       dominant-baseline="middle"
       text-anchor="middle"
       font-family="sans-serif"
       font-size="35px"
       id="svg_16"
       y="221.17261"
       x="419"
       stroke-width="0"
       stroke="#000000"
       fill="#ffffff">param(text1)</text>
    <text
       xml:space="default"
       dominant-baseline="middle"
       text-anchor="middle"
       font-family="sans-serif"
       font-size="50px"
       id="svg_17"
       y="330"
       x="419"
       stroke-width="0"
       stroke="#000000"
       fill="#ffffff">param(text2)</text>
    <text
       xml:space="default"
       dominant-baseline="middle"
       text-anchor="middle"
       font-family="sans-serif"
       font-size="35px"
       id="svg_18"
       y="400.00488"
       x="419"
       stroke-width="0"
       stroke="#000000"
       fill="#ffffff">param(text3)</text>
  </g>
</svg>
